X:1
T:Send the Power Again
T:Send the Power Again
T:Charles Hutchinson Gabriel
T:William Charles Poole, 1911
T:Public Domain Courtesy of the Cyber Hymnal™
T:Public Domain Courtesy of the Cyber Hymnal™
C:Charles Hutchinson Gabriel
Z:Public Domain
Z:Courtesy of the Cyber Hymnal™
%%score ( 1 2 ) 3
L:1/8
Q:1/4=105
M:4/4
K:F
V:1 treble 
V:2 treble 
V:3 bass 
V:1
 F[FG] | [FA]2 [FA]2 [CG]2 [CF][CG] | [FA]2 [Fc]2 [Fc]2 [Fd]2 | [Fc]2 [FA][CG] [CF]2 [FA]2 | %4
w: 1.~There was|power, O Lord, in the|days of old, To|kin- dle a fire in|
w: 2.~There was|power by which ev- ery|tongue could speak, New|life giv- ing power un-|
w: 3.~There was|power to set ev- ery|cap- tive free And|give to Thy ser- vants|
w: 4.~There was|power, O Lord, in the|old time prayer, It|thrilled ev- ery heart and|
 [FA]2 [EG]2 [EG]2 F2 | [FA]2 [FA][FA] [CG]2 [CF]2 | [FA]2 [Fc]2 [Fc]2 [Fd]2 | %7
w: hearts grown cold; That|we on Thy word may|now lay hold, Lord,|
w: to the weak; That|sent them the wan- dering|ones to seek— Lord,|
w: lib- er- ty To|speak and to pray and|work for Thee— Lord,|
w: lin- gered there, Till|we in Thy glo- ry|seemed to share— Lord,|
 [Fc]3 [FA] [FG]2 [EG]2 | F6 ||"^Refrain" [Fc]2 | [Fd]3 [Fd] [Ff]2 [Ff]2 | c6 [Fd]2 | %12
w: send that power a-|gain.||||
w: send that power a-|gain.|Lord,|send the power a-|gain, O|
w: send that power a-|gain.||||
w: send that power a-|gain.||||
 [Fc]3 [Fc] [FA]2 [FA]2 | G6 F[FG] | [FA]2 [FA][FA] [CG]2 [CF][CG] | [FA][Fc] [Fc]2 [Fc]2 [Fd]2 | %16
w: ||||
w: send the power a-|gain! We be-|lieve on Thy name, And Thy|prom- ise we claim, Lord,|
w: ||||
w: ||||
 [Fc]3 [FA] [FG]2 [EG]2 | [CF]6 |] %18
w: ||
w: send the power a-|gain.|
w: ||
w: ||
V:2
 F x | x8 | x8 | x8 | x6 F2 | x8 | x8 | x8 | F6 || x2 | x8 | (F2 E2 F2) x2 | x8 | (E2 F2 E2) F x | %14
 x8 | x8 | x8 | x6 |] %18
V:3
 [F,A,][F,B,] | [F,C]2 [F,C]2 [F,B,]2 [F,A,][F,B,] | [F,C]2 [F,A,]2 [F,A,]2 [F,B,]2 | %3
w: ~ ~|~ ~ ~ ~ ~|~ ~ ~ ~|
 [F,A,]2 [F,C][G,C] [A,C]2 [F,C]2 | [C,C]2 [C,C]2 [C,C]2 [F,A,]2 | %5
w: ~ ~ ~ ~ ~|~ ~ ~ ~|
 [F,C]2 [F,C][F,C] [F,B,]2 [F,A,]2 | [F,C]2 [F,A,]2 [F,A,]2 [B,,B,]2 | %7
w: ~ ~ ~ ~ ~|~ ~ ~ ~|
 [C,A,]3 [C,C] [C,B,]2 [C,B,]2 | [F,A,]6 || [F,A,]2 | [B,,B,]3 [B,,B,] [B,,D]2 [B,,D]2 | %11
w: ~ ~ ~ ~|~|~|~ ~ ~ ~|
 [F,A,]2 [G,B,]2 [F,A,]2 [F,B,]2 | [F,A,]3 [F,A,] [F,C]2 [F,C]2 | %13
w: ~ A- men! ~|~ ~ ~ ~|
 [C,C]2 [D,=B,]2 [C,C]2 [F,A,][F,B,] | [F,C]2 [F,C][F,C] [F,B,]2 [F,A,][F,B,] | %15
w: ~ A- men! * *||
 [F,C][F,A,] [F,A,]2 [F,A,]2 [B,,B,]2 | [C,A,]3 [C,C] [C,B,]2 [C,B,]2 | [F,A,]6 |] %18
w: |||

